svgs/sharp-light/cart-circle-plus.svg

<svg xmlns="http://www.w3.org/2000/svg" viewBox="0 0 640 512"><!--! Font Awesome Pro 6.6.0 by @fontawesome - https://fontawesome.com License - https://fontawesome.com/license (Commercial License) Copyright 2024 Fonticons, Inc. --><path d="M16 0L0 0 0 32l16 0 51.2 0 77.2 339.5 2.8 12.5 12.8 0 160.7 0c-.5-5.3-.7-10.6-.7-16s.2-10.7 .7-16l-147.9 0-14.5-64 181 0c5.9-11.4 12.9-22.2 21-32L151 256 107.3 64l425.2 0-40 128c1.2 0 2.4 0 3.5 0c10 0 19.7 .8 29.2 2.4L566 64l10-32-33.5 0L100 32 95.6 12.5 92.8 0 80 0 16 0zM184 432a24 24 0 1 1 0 48 24 24 0 1 1 0-48zm0 80a56 56 0 1 0 0-112 56 56 0 1 0 0 112zM384 368a112 112 0 1 1 224 0 112 112 0 1 1 -224 0zm256 0a144 144 0 1 0 -288 0 144 144 0 1 0 288 0zM512 304l0-16-32 0 0 16 0 48-48 0-16 0 0 32 16 0 48 0 0 48 0 16 32 0 0-16 0-48 48 0 16 0 0-32-16 0-48 0 0-48z"/></svg>

<svg xmlns="http://www.w3.org/2000/svg" viewBox="0 0 640 512"><!--! Font Awesome Pro 6.4.2 by @fontawesome - https://fontawesome.com License - https://fontawesome.com/license (Commercial License) Copyright 2023 Fonticons, Inc. --><path d="M16 0H0V32H16 67.2l77.2 339.5 2.8 12.5H160 320.7c-.5-5.3-.7-10.6-.7-16s.2-10.7 .7-16H172.8l-14.5-64h181c5.9-11.4 12.9-22.2 21-32H151L107.3 64H532.5l-40 128c1.2 0 2.4 0 3.5 0c10 0 19.7 .8 29.2 2.4L566 64l10-32H542.5 100L95.6 12.5 92.8 0H80 16zM184 432a24 24 0 1 1 0 48 24 24 0 1 1 0-48zm0 80a56 56 0 1 0 0-112 56 56 0 1 0 0 112zM384 368a112 112 0 1 1 224 0 112 112 0 1 1 -224 0zm256 0a144 144 0 1 0 -288 0 144 144 0 1 0 288 0zM512 304V288H480v16 48H432 416v32h16 48v48 16h32V432 384h48 16V352H560 512V304z"/></svg>
